P3
# quiet evening landscape with moon and stars
48 27
255
236 230 201 37 47 93 37 47 93 37 47 93 37 47 93 37 47 93 37 47 93 37 47 93 37 47 93 37 47 93 37 47 93 37 47 93 37 47 93 37 47 93 37 47 93 37 47 93 37 47 93 37 47 93 37 47 93 37 47 93 37 47 93 37 47 93 37 47 93 37 47 93 37 47 93 37 47 93 37 47 93 37 47 93 37 47 93 37 47 93 37 47 93 236 230 201 37 47 93 37 47 93 37 47 93 37 47 93 37 47 93 37 47 93 37 47 93 37 47 93 37 47 93 37 47 93 37 47 93 37 47 93 37 47 93 37 47 93 37 47 93 37 47 93
47 50 93 47 50 93 47 50 93 47 50 93 47 50 93 47 50 93 47 50 93 47 50 93 47 50 93 47 50 93 47 50 93 47 50 93 47 50 93 47 50 93 47 50 93 47 50 93 47 50 93 47 50 93 47 50 93 47 50 93 47 50 93 47 50 93 47 50 93 47 50 93 47 50 93 236 230 201 47 50 93 47 50 93 47 50 93 47 50 93 47 50 93 47 50 93 47 50 93 47 50 93 47 50 93 47 50 93 47 50 93 47 50 93 47 50 93 47 50 93 47 50 93 47 50 93 47 50 93 47 50 93 47 50 93 47 50 93 47 50 93 47 50 93
57 53 94 57 53 94 57 53 94 57 53 94 57 53 94 57 53 94 57 53 94 57 53 94 57 53 94 57 53 94 57 53 94 57 53 94 57 53 94 57 53 94 57 53 94 57 53 94 57 53 94 57 53 94 57 53 94 236 230 201 57 53 94 57 53 94 57 53 94 57 53 94 57 53 94 57 53 94 57 53 94 57 53 94 57 53 94 57 53 94 57 53 94 57 53 94 57 53 94 57 53 94 57 53 94 57 53 94 57 53 94 57 53 94 57 53 94 57 53 94 57 53 94 57 53 94 57 53 94 57 53 94 57 53 94 57 53 94 57 53 94 57 53 94
67 56 94 67 56 94 67 56 94 67 56 94 67 56 94 67 56 94 67 56 94 67 56 94 67 56 94 67 56 94 67 56 94 67 56 94 67 56 94 236 230 201 67 56 94 67 56 94 67 56 94 67 56 94 67 56 94 67 56 94 67 56 94 67 56 94 67 56 94 67 56 94 67 56 94 67 56 94 67 56 94 67 56 94 67 56 94 67 56 94 67 56 94 67 56 94 67 56 94 67 56 94 67 56 94 67 56 94 67 56 94 67 56 94 67 56 94 67 56 94 67 56 94 67 56 94 67 56 94 67 56 94 236 230 201 67 56 94 67 56 94 67 56 94
77 59 95 77 59 95 77 59 95 77 59 95 77 59 95 77 59 95 77 59 95 236 230 201 77 59 95 77 59 95 244 226 183 77 59 95 77 59 95 77 59 95 77 59 95 77 59 95 77 59 95 77 59 95 77 59 95 77 59 95 77 59 95 77 59 95 77 59 95 77 59 95 77 59 95 77 59 95 77 59 95 77 59 95 77 59 95 77 59 95 77 59 95 77 59 95 77 59 95 77 59 95 77 59 95 77 59 95 77 59 95 77 59 95 236 230 201 77 59 95 77 59 95 77 59 95 77 59 95 77 59 95 77 59 95 77 59 95 77 59 95 77 59 95
87 62 95 236 230 201 87 62 95 87 62 95 87 62 95 87 62 95 87 62 95 87 62 95 244 226 183 244 226 183 244 226 183 244 226 183 244 226 183 87 62 95 87 62 95 87 62 95 87 62 95 87 62 95 87 62 95 87 62 95 87 62 95 87 62 95 87 62 95 87 62 95 87 62 95 87 62 95 87 62 95 87 62 95 87 62 95 87 62 95 87 62 95 87 62 95 236 230 201 87 62 95 87 62 95 87 62 95 87 62 95 87 62 95 87 62 95 87 62 95 87 62 95 87 62 95 87 62 95 87 62 95 87 62 95 87 62 95 87 62 95 87 62 95
97 65 95 97 65 95 97 65 95 97 65 95 97 65 95 97 65 95 97 65 95 97 65 95 244 226 183 244 226 183 244 226 183 244 226 183 244 226 183 97 65 95 97 65 95 97 65 95 97 65 95 97 65 95 97 65 95 97 65 95 97 65 95 97 65 95 97 65 95 97 65 95 97 65 95 97 65 95 236 230 201 97 65 95 97 65 95 97 65 95 97 65 95 97 65 95 97 65 95 97 65 95 97 65 95 97 65 95 97 65 95 97 65 95 97 65 95 97 65 95 97 65 95 97 65 95 97 65 95 97 65 95 97 65 95 97 65 95 97 65 95 97 65 95
107 68 96 107 68 96 107 68 96 107 68 96 107 68 96 107 68 96 107 68 96 244 226 183 244 226 183 244 226 183 244 226 183 244 226 183 244 226 183 244 226 183 107 68 96 107 68 96 107 68 96 107 68 96 107 68 96 107 68 96 236 230 201 107 68 96 107 68 96 107 68 96 107 68 96 107 68 96 107 68 96 107 68 96 107 68 96 107 68 96 107 68 96 107 68 96 107 68 96 107 68 96 107 68 96 107 68 96 107 68 96 107 68 96 107 68 96 107 68 96 107 68 96 107 68 96 107 68 96 107 68 96 107 68 96 107 68 96 107 68 96 107 68 96
117 71 96 117 71 96 117 71 96 117 71 96 117 71 96 117 71 96 117 71 96 117 71 96 244 226 183 244 226 183 244 226 183 244 226 183 244 226 183 117 71 96 236 230 201 117 71 96 117 71 96 117 71 96 117 71 96 117 71 96 117 71 96 117 71 96 117 71 96 117 71 96 117 71 96 117 71 96 117 71 96 117 71 96 117 71 96 117 71 96 117 71 96 117 71 96 117 71 96 117 71 96 117 71 96 117 71 96 117 71 96 117 71 96 117 71 96 117 71 96 117 71 96 117 71 96 117 71 96 117 71 96 117 71 96 236 230 201 117 71 96 117 71 96
128 75 97 128 75 97 128 75 97 128 75 97 128 75 97 128 75 97 128 75 97 128 75 97 244 226 183 244 226 183 244 226 183 244 226 183 244 226 183 128 75 97 128 75 97 128 75 97 128 75 97 128 75 97 128 75 97 128 75 97 128 75 97 128 75 97 128 75 97 128 75 97 128 75 97 128 75 97 128 75 97 128 75 97 128 75 97 128 75 97 128 75 97 128 75 97 128 75 97 128 75 97 128 75 97 128 75 97 128 75 97 128 75 97 128 75 97 128 75 97 128 75 97 128 75 97 128 75 97 128 75 97 128 75 97 128 75 97 128 75 97 128 75 97
138 78 97 138 78 97 138 78 97 138 78 97 138 78 97 138 78 97 138 78 97 138 78 97 138 78 97 138 78 97 244 226 183 138 78 97 138 78 97 138 78 97 138 78 97 138 78 97 138 78 97 138 78 97 138 78 97 138 78 97 138 78 97 138 78 97 138 78 97 138 78 97 138 78 97 138 78 97 138 78 97 138 78 97 138 78 97 138 78 97 138 78 97 138 78 97 138 78 97 138 78 97 138 78 97 138 78 97 138 78 97 138 78 97 138 78 97 138 78 97 138 78 97 138 78 97 138 78 97 138 78 97 138 78 97 138 78 97 138 78 97 138 78 97
148 81 98 148 81 98 148 81 98 148 81 98 148 81 98 148 81 98 148 81 98 148 81 98 148 81 98 148 81 98 148 81 98 148 81 98 148 81 98 148 81 98 148 81 98 148 81 98 148 81 98 148 81 98 148 81 98 148 81 98 148 81 98 148 81 98 148 81 98 148 81 98 148 81 98 148 81 98 148 81 98 148 81 98 148 81 98 148 81 98 148 81 98 148 81 98 148 81 98 148 81 98 148 81 98 148 81 98 148 81 98 148 81 98 148 81 98 148 81 98 148 81 98 148 81 98 148 81 98 148 81 98 148 81 98 148 81 98 148 81 98 148 81 98
158 84 98 158 84 98 158 84 98 158 84 98 158 84 98 158 84 98 158 84 98 158 84 98 158 84 98 158 84 98 158 84 98 158 84 98 158 84 98 158 84 98 158 84 98 158 84 98 158 84 98 158 84 98 158 84 98 158 84 98 158 84 98 158 84 98 158 84 98 158 84 98 158 84 98 158 84 98 158 84 98 158 84 98 158 84 98 158 84 98 158 84 98 158 84 98 158 84 98 158 84 98 158 84 98 158 84 98 158 84 98 158 84 98 158 84 98 158 84 98 158 84 98 158 84 98 158 84 98 158 84 98 158 84 98 158 84 98 158 84 98 158 84 98
168 87 98 168 87 98 168 87 98 168 87 98 168 87 98 168 87 98 168 87 98 168 87 98 168 87 98 168 87 98 168 87 98 168 87 98 168 87 98 168 87 98 168 87 98 168 87 98 168 87 98 168 87 98 168 87 98 168 87 98 168 87 98 168 87 98 168 87 98 168 87 98 168 87 98 168 87 98 168 87 98 168 87 98 168 87 98 168 87 98 168 87 98 168 87 98 168 87 98 168 87 98 168 87 98 168 87 98 168 87 98 168 87 98 168 87 98 168 87 98 168 87 98 168 87 98 168 87 98 168 87 98 168 87 98 168 87 98 168 87 98 168 87 98
178 90 99 178 90 99 178 90 99 178 90 99 178 90 99 178 90 99 178 90 99 178 90 99 178 90 99 178 90 99 178 90 99 178 90 99 178 90 99 178 90 99 178 90 99 178 90 99 178 90 99 178 90 99 178 90 99 178 90 99 178 90 99 178 90 99 178 90 99 178 90 99 178 90 99 178 90 99 178 90 99 178 90 99 178 90 99 178 90 99 178 90 99 178 90 99 178 90 99 178 90 99 178 90 99 178 90 99 178 90 99 178 90 99 178 90 99 178 90 99 178 90 99 178 90 99 178 90 99 178 90 99 178 90 99 178 90 99 178 90 99 178 90 99
188 93 99 188 93 99 188 93 99 188 93 99 188 93 99 188 93 99 188 93 99 188 93 99 188 93 99 188 93 99 188 93 99 188 93 99 188 93 99 188 93 99 188 93 99 188 93 99 188 93 99 188 93 99 188 93 99 188 93 99 188 93 99 188 93 99 188 93 99 188 93 99 188 93 99 188 93 99 188 93 99 188 93 99 188 93 99 188 93 99 188 93 99 188 93 99 188 93 99 188 93 99 188 93 99 188 93 99 188 93 99 188 93 99 188 93 99 188 93 99 188 93 99 188 93 99 188 93 99 188 93 99 188 93 99 188 93 99 188 93 99 188 93 99
198 96 100 198 96 100 198 96 100 198 96 100 198 96 100 198 96 100 198 96 100 198 96 100 198 96 100 198 96 100 198 96 100 198 96 100 198 96 100 198 96 100 198 96 100 198 96 100 198 96 100 198 96 100 198 96 100 198 96 100 198 96 100 198 96 100 198 96 100 198 96 100 198 96 100 198 96 100 198 96 100 198 96 100 198 96 100 198 96 100 198 96 100 198 96 100 198 96 100 198 96 100 198 96 100 198 96 100 198 96 100 198 96 100 198 96 100 198 96 100 198 96 100 198 96 100 198 96 100 198 96 100 198 96 100 198 96 100 198 96 100 198 96 100
208 99 100 208 99 100 208 99 100 208 99 100 208 99 100 208 99 100 208 99 100 208 99 100 208 99 100 208 99 100 208 99 100 208 99 100 208 99 100 208 99 100 208 99 100 208 99 100 208 99 100 208 99 100 208 99 100 208 99 100 208 99 100 208 99 100 208 99 100 208 99 100 208 99 100 208 99 100 208 99 100 208 99 100 208 99 100 208 99 100 208 99 100 208 99 100 208 99 100 208 99 100 208 99 100 208 99 100 208 99 100 208 99 100 208 99 100 208 99 100 208 99 100 208 99 100 208 99 100 208 99 100 208 99 100 208 99 100 208 99 100 208 99 100
72 75 88 72 75 88 72 75 88 72 75 88 72 75 88 72 75 88 72 75 88 72 75 88 72 75 88 72 75 88 72 75 88 72 75 88 72 75 88 72 75 88 35 63 61 35 63 61 35 63 61 35 63 61 35 63 61 35 63 61 26 50 45 26 50 45 26 50 45 26 50 45 26 50 45 26 50 45 72 75 88 72 75 88 72 75 88 72 75 88 72 75 88 72 75 88 72 75 88 72 75 88 72 75 88 72 75 88 72 75 88 72 75 88 72 75 88 72 75 88 72 75 88 72 75 88 72 75 88 72 75 88 72 75 88 72 75 88 72 75 88 72 75 88
72 75 88 72 75 88 72 75 88 72 75 88 72 75 88 72 75 88 72 75 88 72 75 88 35 63 61 35 63 61 35 63 61 35 63 61 35 63 61 35 63 61 35 66 61 35 66 61 35 66 61 35 66 61 35 66 61 35 66 61 26 50 45 26 50 45 26 50 45 26 50 45 26 50 45 26 50 45 26 50 45 26 50 45 26 50 45 35 63 61 35 63 61 35 63 61 72 75 88 72 75 88 72 75 88 72 75 88 72 75 88 72 75 88 72 75 88 72 75 88 72 75 88 72 75 88 72 75 88 35 63 61 35 63 61 35 63 61 35 63 61 35 63 61
35 63 61 35 63 61 35 63 61 35 63 61 35 63 61 35 63 61 35 63 61 35 63 61 35 66 61 35 66 61 35 66 61 35 66 61 35 66 61 35 66 61 35 69 61 35 69 61 35 69 61 35 69 61 35 69 61 35 69 61 26 50 45 26 50 45 26 50 45 62 45 38 62 45 38 62 45 38 26 50 45 26 50 45 26 50 45 35 66 61 35 66 61 35 66 61 35 63 61 35 63 61 35 63 61 35 63 61 35 63 61 35 63 61 35 63 61 35 63 61 35 63 61 35 63 61 35 63 61 35 66 61 35 66 61 35 66 61 35 66 61 35 66 61
35 66 61 35 66 61 35 66 61 35 66 61 35 66 61 35 66 61 35 66 61 35 66 61 35 69 61 35 69 61 35 69 61 35 69 61 35 69 61 35 69 61 35 72 61 35 72 61 35 72 61 35 72 61 35 72 61 35 72 61 26 50 45 26 50 45 26 50 45 62 45 38 62 45 38 62 45 38 26 50 45 26 50 45 26 50 45 35 69 61 35 69 61 35 69 61 35 66 61 35 66 61 35 66 61 35 66 61 35 66 61 35 66 61 35 66 61 35 66 61 35 66 61 35 66 61 35 66 61 35 69 61 35 69 61 35 69 61 35 69 61 35 69 61
35 69 61 35 69 61 35 69 61 35 69 61 35 69 61 35 69 61 35 69 61 35 69 61 35 72 61 35 72 61 35 72 61 35 72 61 35 72 61 35 72 61 35 75 61 35 75 61 35 75 61 35 75 61 35 75 61 35 75 61 26 50 45 26 50 45 26 50 45 62 45 38 62 45 38 62 45 38 26 50 45 26 50 45 26 50 45 35 72 61 35 72 61 35 72 61 35 69 61 35 69 61 35 69 61 35 69 61 35 69 61 35 69 61 35 69 61 35 69 61 35 69 61 35 69 61 35 69 61 35 72 61 35 72 61 35 72 61 35 72 61 35 72 61
35 72 61 35 72 61 35 72 61 35 72 61 35 72 61 35 72 61 35 72 61 35 72 61 35 75 61 35 75 61 35 75 61 35 75 61 35 75 61 35 75 61 35 78 61 35 78 61 35 78 61 35 78 61 35 78 61 35 78 61 35 78 61 35 78 61 35 78 61 62 45 38 62 45 38 62 45 38 35 75 61 35 75 61 35 75 61 35 75 61 35 75 61 35 75 61 35 72 61 35 72 61 35 72 61 35 72 61 35 72 61 35 72 61 35 72 61 35 72 61 35 72 61 35 72 61 35 72 61 35 75 61 35 75 61 35 75 61 35 75 61 35 75 61
35 75 61 35 75 61 35 75 61 35 75 61 35 75 61 35 75 61 35 75 61 35 75 61 35 78 61 35 78 61 35 78 61 35 78 61 35 78 61 35 78 61 35 81 61 35 81 61 35 81 61 35 81 61 35 81 61 35 81 61 35 81 61 35 81 61 35 81 61 62 45 38 62 45 38 62 45 38 35 78 61 35 78 61 35 78 61 35 78 61 35 78 61 35 78 61 35 75 61 35 75 61 35 75 61 35 75 61 35 75 61 35 75 61 35 75 61 35 75 61 35 75 61 35 75 61 35 75 61 35 78 61 35 78 61 35 78 61 35 78 61 35 78 61
35 78 61 35 78 61 35 78 61 35 78 61 35 78 61 35 78 61 35 78 61 35 78 61 35 81 61 35 81 61 35 81 61 35 81 61 35 81 61 35 81 61 35 84 61 35 84 61 35 84 61 35 84 61 35 84 61 35 84 61 35 84 61 35 84 61 35 84 61 62 45 38 62 45 38 62 45 38 35 81 61 35 81 61 35 81 61 35 81 61 35 81 61 35 81 61 35 78 61 35 78 61 35 78 61 35 78 61 35 78 61 35 78 61 35 78 61 35 78 61 35 78 61 35 78 61 35 78 61 35 81 61 35 81 61 35 81 61 35 81 61 35 81 61
35 81 61 35 81 61 35 81 61 35 81 61 35 81 61 35 81 61 35 81 61 35 81 61 35 84 61 35 84 61 35 84 61 35 84 61 35 84 61 35 84 61 35 87 61 35 87 61 35 87 61 35 87 61 35 87 61 35 87 61 35 87 61 35 87 61 35 87 61 62 45 38 62 45 38 62 45 38 35 84 61 35 84 61 35 84 61 35 84 61 35 84 61 35 84 61 35 81 61 35 81 61 35 81 61 35 81 61 35 81 61 35 81 61 35 81 61 35 81 61 35 81 61 35 81 61 35 81 61 35 84 61 35 84 61 35 84 61 35 84 61 35 84 61
