P3
# meadow path with clouds and a tree
48 27
255
70 135 190 70 135 190 70 135 190 70 135 190 70 135 190 70 135 190 70 135 190 70 135 190 70 135 190 70 135 190 70 135 190 70 135 190 70 135 190 70 135 190 70 135 190 70 135 190 70 135 190 70 135 190 70 135 190 70 135 190 70 135 190 70 135 190 70 135 190 70 135 190 70 135 190 70 135 190 70 135 190 70 135 190 70 135 190 70 135 190 70 135 190 70 135 190 70 135 190 70 135 190 70 135 190 70 135 190 70 135 190 70 135 190 70 135 190 70 135 190 70 135 190 70 135 190 70 135 190 70 135 190 70 135 190 70 135 190 70 135 190 70 135 190
78 141 192 78 141 192 78 141 192 78 141 192 78 141 192 78 141 192 78 141 192 78 141 192 78 141 192 78 141 192 78 141 192 78 141 192 78 141 192 78 141 192 78 141 192 78 141 192 78 141 192 78 141 192 78 141 192 78 141 192 78 141 192 78 141 192 78 141 192 78 141 192 78 141 192 78 141 192 78 141 192 78 141 192 78 141 192 78 141 192 78 141 192 78 141 192 78 141 192 78 141 192 78 141 192 78 141 192 78 141 192 78 141 192 78 141 192 78 141 192 78 141 192 78 141 192 78 141 192 78 141 192 78 141 192 78 141 192 78 141 192 78 141 192
85 146 195 85 146 195 85 146 195 85 146 195 85 146 195 85 146 195 85 146 195 85 146 195 85 146 195 85 146 195 85 146 195 85 146 195 85 146 195 85 146 195 232 239 231 85 146 195 85 146 195 85 146 195 85 146 195 85 146 195 85 146 195 85 146 195 85 146 195 85 146 195 85 146 195 85 146 195 85 146 195 85 146 195 85 146 195 85 146 195 85 146 195 85 146 195 85 146 195 85 146 195 85 146 195 85 146 195 85 146 195 85 146 195 85 146 195 85 146 195 85 146 195 85 146 195 85 146 195 85 146 195 85 146 195 85 146 195 85 146 195 85 146 195
93 152 197 93 152 197 93 152 197 93 152 197 93 152 197 93 152 197 93 152 197 93 152 197 93 152 197 93 152 197 232 239 231 93 152 197 232 239 231 232 239 231 232 239 231 232 239 231 232 239 231 93 152 197 93 152 197 93 152 197 93 152 197 93 152 197 93 152 197 93 152 197 93 152 197 93 152 197 93 152 197 93 152 197 93 152 197 93 152 197 93 152 197 93 152 197 93 152 197 93 152 197 93 152 197 93 152 197 93 152 197 93 152 197 93 152 197 93 152 197 93 152 197 93 152 197 93 152 197 93 152 197 93 152 197 93 152 197 93 152 197 93 152 197
100 158 200 100 158 200 100 158 200 100 158 200 100 158 200 100 158 200 100 158 200 100 158 200 232 239 231 232 239 231 232 239 231 232 239 231 232 239 231 232 239 231 232 239 231 232 239 231 232 239 231 232 239 231 232 239 231 100 158 200 100 158 200 100 158 200 100 158 200 100 158 200 100 158 200 100 158 200 100 158 200 100 158 200 100 158 200 100 158 200 100 158 200 100 158 200 100 158 200 100 158 200 100 158 200 100 158 200 100 158 200 100 158 200 100 158 200 100 158 200 100 158 200 100 158 200 100 158 200 100 158 200 100 158 200 100 158 200 100 158 200 100 158 200
108 164 202 108 164 202 108 164 202 108 164 202 108 164 202 108 164 202 108 164 202 108 164 202 232 239 231 232 239 231 232 239 231 232 239 231 232 239 231 232 239 231 232 239 231 232 239 231 232 239 231 232 239 231 232 239 231 232 239 231 232 239 231 108 164 202 108 164 202 108 164 202 108 164 202 108 164 202 108 164 202 108 164 202 108 164 202 108 164 202 108 164 202 108 164 202 108 164 202 108 164 202 108 164 202 108 164 202 108 164 202 108 164 202 108 164 202 108 164 202 108 164 202 108 164 202 108 164 202 108 164 202 108 164 202 108 164 202 108 164 202 108 164 202
115 169 205 115 169 205 115 169 205 115 169 205 115 169 205 115 169 205 115 169 205 232 239 231 232 239 231 232 239 231 232 239 231 232 239 231 232 239 231 232 239 231 232 239 231 232 239 231 232 239 231 232 239 231 232 239 231 232 239 231 232 239 231 115 169 205 115 169 205 115 169 205 115 169 205 115 169 205 115 169 205 115 169 205 115 169 205 115 169 205 115 169 205 115 169 205 115 169 205 115 169 205 115 169 205 115 169 205 115 169 205 115 169 205 115 169 205 115 169 205 115 169 205 115 169 205 115 169 205 115 169 205 115 169 205 115 169 205 115 169 205 115 169 205
123 175 207 123 175 207 123 175 207 123 175 207 123 175 207 123 175 207 123 175 207 123 175 207 232 239 231 232 239 231 232 239 231 232 239 231 232 239 231 232 239 231 232 239 231 232 239 231 232 239 231 232 239 231 232 239 231 232 239 231 232 239 231 232 239 231 123 175 207 123 175 207 123 175 207 123 175 207 123 175 207 123 175 207 123 175 207 123 175 207 123 175 207 123 175 207 123 175 207 123 175 207 123 175 207 123 175 207 123 175 207 123 175 207 123 175 207 123 175 207 123 175 207 123 175 207 123 175 207 123 175 207 123 175 207 123 175 207 123 175 207 123 175 207
131 181 209 131 181 209 131 181 209 131 181 209 131 181 209 131 181 209 131 181 209 131 181 209 232 239 231 232 239 231 232 239 231 232 239 231 232 239 231 232 239 231 232 239 231 232 239 231 232 239 231 232 239 231 232 239 231 232 239 231 232 239 231 131 181 209 131 181 209 131 181 209 131 181 209 131 181 209 131 181 209 131 181 209 131 181 209 131 181 209 131 181 209 131 181 209 131 181 209 131 181 209 131 181 209 131 181 209 131 181 209 131 181 209 131 181 209 131 181 209 131 181 209 131 181 209 131 181 209 131 181 209 131 181 209 131 181 209 131 181 209 131 181 209
138 186 212 138 186 212 138 186 212 138 186 212 138 186 212 138 186 212 138 186 212 138 186 212 138 186 212 138 186 212 232 239 231 138 186 212 232 239 231 232 239 231 232 239 231 232 239 231 232 239 231 232 239 231 232 239 231 232 239 231 232 239 231 138 186 212 138 186 212 138 186 212 138 186 212 138 186 212 138 186 212 138 186 212 138 186 212 138 186 212 138 186 212 138 186 212 138 186 212 138 186 212 138 186 212 138 186 212 138 186 212 138 186 212 138 186 212 138 186 212 138 186 212 138 186 212 138 186 212 138 186 212 138 186 212 138 186 212 138 186 212 138 186 212
146 192 214 146 192 214 146 192 214 146 192 214 146 192 214 146 192 214 146 192 214 146 192 214 146 192 214 146 192 214 146 192 214 146 192 214 146 192 214 146 192 214 232 239 231 146 192 214 146 192 214 146 192 214 232 239 231 146 192 214 146 192 214 146 192 214 146 192 214 146 192 214 146 192 214 146 192 214 146 192 214 146 192 214 146 192 214 146 192 214 146 192 214 146 192 214 146 192 214 146 192 214 146 192 214 146 192 214 146 192 214 146 192 214 146 192 214 146 192 214 146 192 214 146 192 214 146 192 214 146 192 214 146 192 214 146 192 214 146 192 214 146 192 214
153 198 217 153 198 217 153 198 217 153 198 217 153 198 217 153 198 217 153 198 217 153 198 217 153 198 217 153 198 217 153 198 217 153 198 217 153 198 217 153 198 217 153 198 217 153 198 217 153 198 217 153 198 217 153 198 217 153 198 217 153 198 217 153 198 217 153 198 217 153 198 217 153 198 217 153 198 217 153 198 217 153 198 217 153 198 217 153 198 217 153 198 217 153 198 217 153 198 217 153 198 217 153 198 217 153 198 217 153 198 217 153 198 217 153 198 217 153 198 217 153 198 217 153 198 217 153 198 217 153 198 217 153 198 217 153 198 217 153 198 217 153 198 217
161 204 219 161 204 219 161 204 219 161 204 219 161 204 219 161 204 219 161 204 219 161 204 219 161 204 219 161 204 219 161 204 219 161 204 219 161 204 219 161 204 219 161 204 219 161 204 219 161 204 219 161 204 219 161 204 219 161 204 219 161 204 219 161 204 219 161 204 219 161 204 219 161 204 219 161 204 219 161 204 219 161 204 219 161 204 219 161 204 219 161 204 219 161 204 219 161 204 219 161 204 219 161 204 219 161 204 219 161 204 219 161 204 219 161 204 219 161 204 219 161 204 219 161 204 219 161 204 219 161 204 219 161 204 219 161 204 219 161 204 219 161 204 219
168 209 222 168 209 222 168 209 222 168 209 222 168 209 222 168 209 222 168 209 222 168 209 222 168 209 222 168 209 222 168 209 222 168 209 222 168 209 222 168 209 222 168 209 222 168 209 222 168 209 222 168 209 222 168 209 222 168 209 222 168 209 222 168 209 222 168 209 222 168 209 222 168 209 222 168 209 222 168 209 222 168 209 222 168 209 222 168 209 222 168 209 222 168 209 222 168 209 222 168 209 222 168 209 222 168 209 222 168 209 222 168 209 222 168 209 222 168 209 222 168 209 222 168 209 222 168 209 222 168 209 222 168 209 222 168 209 222 168 209 222 168 209 222
176 215 224 176 215 224 176 215 224 176 215 224 176 215 224 176 215 224 176 215 224 176 215 224 176 215 224 176 215 224 176 215 224 176 215 224 176 215 224 176 215 224 176 215 224 176 215 224 176 215 224 176 215 224 176 215 224 176 215 224 176 215 224 176 215 224 176 215 224 176 215 224 176 215 224 176 215 224 176 215 224 176 215 224 176 215 224 176 215 224 176 215 224 176 215 224 176 215 224 176 215 224 176 215 224 176 215 224 176 215 224 176 215 224 176 215 224 176 215 224 176 215 224 176 215 224 176 215 224 176 215 224 176 215 224 176 215 224 176 215 224 176 215 224
72 139 74 72 139 74 72 139 74 72 139 74 72 139 74 72 139 74 72 139 74 72 139 74 72 139 74 72 139 74 72 139 74 72 139 74 72 139 74 72 139 74 72 139 74 72 139 74 72 139 74 72 139 74 72 139 74 72 139 74 72 139 74 72 139 74 72 139 74 72 139 74 72 139 74 184 158 111 184 158 111 184 158 111 72 139 74 72 139 74 72 139 74 42 103 62 42 103 62 42 103 62 42 103 62 42 103 62 92 65 42 92 65 42 92 65 42 42 103 62 42 103 62 42 103 62 42 103 62 42 103 62 42 103 62 72 139 74 72 139 74 72 139 74
72 144 74 72 144 74 72 144 74 72 144 74 72 144 74 72 144 74 72 144 74 72 144 74 72 144 74 72 144 74 72 144 74 72 144 74 72 144 74 72 144 74 72 144 74 72 144 74 72 144 74 72 144 74 72 144 74 72 144 74 72 144 74 72 144 74 72 144 74 72 144 74 72 144 74 184 158 111 184 158 111 184 158 111 72 144 74 72 144 74 72 144 74 72 144 74 72 144 74 42 103 62 72 144 74 72 144 74 92 65 42 92 65 42 92 65 42 42 103 62 42 103 62 42 103 62 42 103 62 42 103 62 72 144 74 72 144 74 72 144 74 72 144 74
72 149 74 72 149 74 72 149 74 72 149 74 72 149 74 72 149 74 72 149 74 72 149 74 72 149 74 72 149 74 72 149 74 72 149 74 72 149 74 72 149 74 72 149 74 72 149 74 72 149 74 72 149 74 72 149 74 72 149 74 72 149 74 72 149 74 72 149 74 72 149 74 72 149 74 184 158 111 184 158 111 184 158 111 72 149 74 72 149 74 72 149 74 72 149 74 72 149 74 72 149 74 72 149 74 72 149 74 92 65 42 92 65 42 92 65 42 72 149 74 72 149 74 42 103 62 72 149 74 72 149 74 72 149 74 72 149 74 72 149 74 72 149 74
72 154 74 72 154 74 72 154 74 72 154 74 72 154 74 72 154 74 72 154 74 72 154 74 72 154 74 72 154 74 72 154 74 72 154 74 72 154 74 72 154 74 238 205 90 72 154 74 72 154 74 72 154 74 72 154 74 72 154 74 72 154 74 72 154 74 72 154 74 72 154 74 72 154 74 72 154 74 184 158 111 184 158 111 184 158 111 72 154 74 72 154 74 238 205 90 72 154 74 72 154 74 72 154 74 72 154 74 92 65 42 92 65 42 92 65 42 72 154 74 72 154 74 72 154 74 72 154 74 72 154 74 72 154 74 72 154 74 72 154 74 72 154 74
72 159 74 72 159 74 72 159 74 72 159 74 72 159 74 72 159 74 72 159 74 72 159 74 72 159 74 72 159 74 72 159 74 238 205 90 72 159 74 72 159 74 72 159 74 72 159 74 72 159 74 72 159 74 72 159 74 72 159 74 72 159 74 72 159 74 72 159 74 72 159 74 72 159 74 184 158 111 184 158 111 184 158 111 184 158 111 184 158 111 72 159 74 72 159 74 72 159 74 72 159 74 72 159 74 72 159 74 92 65 42 92 65 42 92 65 42 72 159 74 72 159 74 72 159 74 72 159 74 72 159 74 72 159 74 238 205 90 72 159 74 72 159 74
72 164 74 72 164 74 72 164 74 72 164 74 72 164 74 72 164 74 72 164 74 72 164 74 238 205 90 72 164 74 72 164 74 72 164 74 72 164 74 72 164 74 72 164 74 72 164 74 72 164 74 72 164 74 72 164 74 72 164 74 72 164 74 72 164 74 72 164 74 72 164 74 72 164 74 184 158 111 184 158 111 184 158 111 184 158 111 184 158 111 72 164 74 72 164 74 72 164 74 72 164 74 72 164 74 72 164 74 92 65 42 92 65 42 92 65 42 72 164 74 72 164 74 72 164 74 238 205 90 72 164 74 72 164 74 72 164 74 72 164 74 72 164 74
72 169 74 72 169 74 72 169 74 72 169 74 72 169 74 238 205 90 72 169 74 72 169 74 72 169 74 72 169 74 72 169 74 72 169 74 72 169 74 72 169 74 72 169 74 72 169 74 72 169 74 72 169 74 72 169 74 72 169 74 72 169 74 72 169 74 238 205 90 72 169 74 72 169 74 184 158 111 184 158 111 184 158 111 184 158 111 184 158 111 184 158 111 184 158 111 72 169 74 72 169 74 72 169 74 72 169 74 92 65 42 92 65 42 92 65 42 238 205 90 72 169 74 72 169 74 72 169 74 72 169 74 72 169 74 72 169 74 72 169 74 72 169 74
72 174 74 72 174 74 238 205 90 72 174 74 72 174 74 72 174 74 72 174 74 72 174 74 72 174 74 72 174 74 72 174 74 72 174 74 72 174 74 72 174 74 72 174 74 72 174 74 72 174 74 72 174 74 72 174 74 238 205 90 72 174 74 72 174 74 72 174 74 72 174 74 72 174 74 184 158 111 184 158 111 184 158 111 184 158 111 184 158 111 184 158 111 184 158 111 72 174 74 72 174 74 72 174 74 72 174 74 238 205 90 72 174 74 72 174 74 72 174 74 72 174 74 72 174 74 72 174 74 72 174 74 72 174 74 72 174 74 72 174 74 72 174 74
72 179 74 72 179 74 72 179 74 72 179 74 72 179 74 72 179 74 72 179 74 72 179 74 72 179 74 72 179 74 72 179 74 72 179 74 72 179 74 72 179 74 72 179 74 72 179 74 238 205 90 72 179 74 72 179 74 72 179 74 72 179 74 72 179 74 72 179 74 72 179 74 184 158 111 184 158 111 184 158 111 184 158 111 184 158 111 184 158 111 184 158 111 184 158 111 184 158 111 238 205 90 72 179 74 72 179 74 72 179 74 72 179 74 72 179 74 72 179 74 72 179 74 72 179 74 72 179 74 72 179 74 72 179 74 72 179 74 72 179 74 72 179 74
72 179 74 72 179 74 72 179 74 72 179 74 72 179 74 72 179 74 72 179 74 72 179 74 72 179 74 72 179 74 72 179 74 72 179 74 72 179 74 238 205 90 72 179 74 72 179 74 72 179 74 72 179 74 72 179 74 72 179 74 72 179 74 72 179 74 72 179 74 72 179 74 72 179 74 184 158 111 184 158 111 184 158 111 184 158 111 184 158 111 184 158 111 184 158 111 184 158 111 184 158 111 72 179 74 72 179 74 72 179 74 72 179 74 72 179 74 72 179 74 72 179 74 72 179 74 72 179 74 72 179 74 72 179 74 72 179 74 72 179 74 238 205 90
72 179 74 72 179 74 72 179 74 72 179 74 72 179 74 72 179 74 72 179 74 72 179 74 72 179 74 72 179 74 238 205 90 72 179 74 72 179 74 72 179 74 72 179 74 72 179 74 72 179 74 72 179 74 72 179 74 72 179 74 72 179 74 72 179 74 72 179 74 72 179 74 184 158 111 184 158 111 184 158 111 184 158 111 184 158 111 184 158 111 184 158 111 184 158 111 184 158 111 184 158 111 184 158 111 72 179 74 72 179 74 72 179 74 72 179 74 72 179 74 72 179 74 72 179 74 72 179 74 72 179 74 238 205 90 72 179 74 72 179 74 72 179 74
72 179 74 72 179 74 72 179 74 72 179 74 72 179 74 72 179 74 72 179 74 238 205 90 72 179 74 72 179 74 72 179 74 72 179 74 72 179 74 72 179 74 72 179 74 72 179 74 72 179 74 72 179 74 72 179 74 72 179 74 72 179 74 72 179 74 72 179 74 72 179 74 184 158 111 184 158 111 184 158 111 184 158 111 184 158 111 184 158 111 184 158 111 184 158 111 184 158 111 184 158 111 184 158 111 72 179 74 72 179 74 72 179 74 72 179 74 72 179 74 72 179 74 238 205 90 72 179 74 72 179 74 72 179 74 72 179 74 72 179 74 72 179 74
