P3
# sunrise over water and hills
48 27
255
42 82 140 42 82 140 42 82 140 42 82 140 42 82 140 42 82 140 42 82 140 42 82 140 42 82 140 42 82 140 42 82 140 42 82 140 42 82 140 42 82 140 42 82 140 42 82 140 42 82 140 42 82 140 42 82 140 42 82 140 42 82 140 42 82 140 42 82 140 42 82 140 42 82 140 42 82 140 42 82 140 42 82 140 42 82 140 42 82 140 42 82 140 42 82 140 42 82 140 42 82 140 42 82 140 42 82 140 42 82 140 42 82 140 42 82 140 42 82 140 42 82 140 42 82 140 42 82 140 42 82 140 42 82 140 42 82 140 42 82 140 42 82 140
55 88 138 55 88 138 55 88 138 55 88 138 55 88 138 55 88 138 55 88 138 55 88 138 55 88 138 55 88 138 55 88 138 55 88 138 55 88 138 55 88 138 55 88 138 55 88 138 55 88 138 55 88 138 55 88 138 55 88 138 55 88 138 55 88 138 55 88 138 55 88 138 55 88 138 55 88 138 55 88 138 55 88 138 55 88 138 55 88 138 55 88 138 55 88 138 55 88 138 55 88 138 55 88 138 55 88 138 55 88 138 55 88 138 55 88 138 55 88 138 55 88 138 55 88 138 55 88 138 55 88 138 55 88 138 55 88 138 55 88 138 55 88 138
68 94 136 68 94 136 68 94 136 68 94 136 68 94 136 68 94 136 68 94 136 68 94 136 68 94 136 68 94 136 68 94 136 68 94 136 68 94 136 68 94 136 68 94 136 68 94 136 68 94 136 68 94 136 68 94 136 68 94 136 68 94 136 68 94 136 68 94 136 68 94 136 68 94 136 68 94 136 68 94 136 68 94 136 68 94 136 68 94 136 68 94 136 68 94 136 68 94 136 68 94 136 68 94 136 68 94 136 68 94 136 68 94 136 68 94 136 68 94 136 68 94 136 68 94 136 68 94 136 68 94 136 68 94 136 68 94 136 68 94 136 68 94 136
80 100 135 80 100 135 80 100 135 80 100 135 80 100 135 80 100 135 80 100 135 80 100 135 80 100 135 80 100 135 80 100 135 80 100 135 80 100 135 80 100 135 80 100 135 80 100 135 80 100 135 80 100 135 80 100 135 80 100 135 80 100 135 80 100 135 80 100 135 80 100 135 80 100 135 80 100 135 80 100 135 80 100 135 80 100 135 80 100 135 80 100 135 80 100 135 80 100 135 80 100 135 80 100 135 80 100 135 80 100 135 80 100 135 80 100 135 80 100 135 80 100 135 80 100 135 80 100 135 80 100 135 80 100 135 80 100 135 80 100 135 80 100 135
93 106 133 93 106 133 93 106 133 93 106 133 93 106 133 93 106 133 93 106 133 93 106 133 93 106 133 93 106 133 93 106 133 93 106 133 93 106 133 93 106 133 93 106 133 93 106 133 93 106 133 93 106 133 93 106 133 93 106 133 93 106 133 93 106 133 93 106 133 93 106 133 93 106 133 93 106 133 93 106 133 93 106 133 93 106 133 93 106 133 93 106 133 93 106 133 93 106 133 93 106 133 93 106 133 93 106 133 255 226 145 93 106 133 93 106 133 93 106 133 93 106 133 93 106 133 93 106 133 93 106 133 93 106 133 93 106 133 93 106 133 93 106 133
106 111 131 106 111 131 106 111 131 106 111 131 106 111 131 106 111 131 106 111 131 106 111 131 106 111 131 106 111 131 106 111 131 106 111 131 106 111 131 106 111 131 106 111 131 106 111 131 106 111 131 106 111 131 106 111 131 106 111 131 106 111 131 106 111 131 106 111 131 106 111 131 106 111 131 106 111 131 106 111 131 106 111 131 106 111 131 106 111 131 106 111 131 106 111 131 106 111 131 106 111 131 255 226 145 255 226 145 255 226 145 255 226 145 255 226 145 106 111 131 106 111 131 106 111 131 106 111 131 106 111 131 106 111 131 106 111 131 106 111 131 106 111 131
118 117 130 118 117 130 118 117 130 118 117 130 118 117 130 118 117 130 118 117 130 118 117 130 118 117 130 118 117 130 118 117 130 118 117 130 118 117 130 118 117 130 118 117 130 118 117 130 118 117 130 118 117 130 118 117 130 118 117 130 118 117 130 118 117 130 118 117 130 118 117 130 118 117 130 118 117 130 118 117 130 118 117 130 118 117 130 118 117 130 118 117 130 118 117 130 118 117 130 255 226 145 255 226 145 255 226 145 255 226 145 255 226 145 255 226 145 255 226 145 118 117 130 118 117 130 118 117 130 118 117 130 118 117 130 118 117 130 118 117 130 118 117 130
131 123 128 131 123 128 131 123 128 131 123 128 131 123 128 131 123 128 131 123 128 131 123 128 131 123 128 131 123 128 131 123 128 131 123 128 131 123 128 131 123 128 131 123 128 131 123 128 131 123 128 131 123 128 131 123 128 131 123 128 131 123 128 131 123 128 131 123 128 131 123 128 131 123 128 131 123 128 131 123 128 131 123 128 131 123 128 131 123 128 131 123 128 131 123 128 131 123 128 255 226 145 255 226 145 255 226 145 255 226 145 255 226 145 255 226 145 255 226 145 131 123 128 131 123 128 131 123 128 131 123 128 131 123 128 131 123 128 131 123 128 131 123 128
144 129 126 144 129 126 144 129 126 144 129 126 144 129 126 144 129 126 144 129 126 144 129 126 144 129 126 144 129 126 144 129 126 144 129 126 144 129 126 144 129 126 144 129 126 144 129 126 144 129 126 144 129 126 144 129 126 144 129 126 144 129 126 144 129 126 144 129 126 144 129 126 144 129 126 144 129 126 144 129 126 144 129 126 144 129 126 144 129 126 144 129 126 144 129 126 255 226 145 255 226 145 255 226 145 255 226 145 255 226 145 255 226 145 255 226 145 255 226 145 255 226 145 144 129 126 144 129 126 144 129 126 144 129 126 144 129 126 144 129 126 144 129 126
157 135 124 157 135 124 157 135 124 157 135 124 157 135 124 157 135 124 157 135 124 157 135 124 157 135 124 157 135 124 157 135 124 157 135 124 157 135 124 157 135 124 157 135 124 157 135 124 157 135 124 157 135 124 157 135 124 157 135 124 157 135 124 157 135 124 157 135 124 157 135 124 157 135 124 157 135 124 157 135 124 157 135 124 157 135 124 157 135 124 157 135 124 157 135 124 157 135 124 255 226 145 255 226 145 255 226 145 255 226 145 255 226 145 255 226 145 255 226 145 157 135 124 157 135 124 157 135 124 157 135 124 157 135 124 157 135 124 157 135 124 157 135 124
170 141 122 170 141 122 170 141 122 170 141 122 170 141 122 170 141 122 170 141 122 170 141 122 170 141 122 170 141 122 170 141 122 170 141 122 170 141 122 170 141 122 170 141 122 170 141 122 170 141 122 170 141 122 170 141 122 170 141 122 170 141 122 170 141 122 170 141 122 170 141 122 170 141 122 170 141 122 170 141 122 170 141 122 170 141 122 170 141 122 170 141 122 170 141 122 170 141 122 255 226 145 255 226 145 255 226 145 255 226 145 255 226 145 255 226 145 255 226 145 170 141 122 170 141 122 170 141 122 170 141 122 170 141 122 170 141 122 170 141 122 170 141 122
182 147 121 182 147 121 182 147 121 182 147 121 182 147 121 182 147 121 182 147 121 182 147 121 182 147 121 182 147 121 182 147 121 182 147 121 182 147 121 182 147 121 182 147 121 182 147 121 182 147 121 182 147 121 182 147 121 182 147 121 182 147 121 182 147 121 182 147 121 182 147 121 182 147 121 182 147 121 182 147 121 182 147 121 182 147 121 182 147 121 182 147 121 182 147 121 182 147 121 182 147 121 255 226 145 255 226 145 255 226 145 255 226 145 255 226 145 182 147 121 182 147 121 182 147 121 182 147 121 182 147 121 182 147 121 182 147 121 182 147 121 182 147 121
195 152 119 195 152 119 195 152 119 195 152 119 195 152 119 195 152 119 195 152 119 195 152 119 195 152 119 195 152 119 195 152 119 195 152 119 195 152 119 195 152 119 195 152 119 195 152 119 195 152 119 195 152 119 195 152 119 195 152 119 195 152 119 195 152 119 195 152 119 195 152 119 195 152 119 195 152 119 195 152 119 195 152 119 195 152 119 195 152 119 195 152 119 195 152 119 195 152 119 195 152 119 195 152 119 195 152 119 255 226 145 195 152 119 195 152 119 195 152 119 195 152 119 195 152 119 195 152 119 195 152 119 195 152 119 195 152 119 195 152 119 195 152 119
208 158 117 208 158 117 208 158 117 208 158 117 208 158 117 208 158 117 208 158 117 208 158 117 208 158 117 208 158 117 208 158 117 208 158 117 208 158 117 208 158 117 208 158 117 208 158 117 208 158 117 208 158 117 208 158 117 208 158 117 208 158 117 208 158 117 208 158 117 208 158 117 208 158 117 208 158 117 208 158 117 208 158 117 208 158 117 208 158 117 208 158 117 208 158 117 208 158 117 208 158 117 208 158 117 208 158 117 208 158 117 208 158 117 208 158 117 208 158 117 208 158 117 208 158 117 208 158 117 208 158 117 208 158 117 208 158 117 208 158 117 208 158 117
220 164 116 220 164 116 220 164 116 220 164 116 220 164 116 220 164 116 220 164 116 220 164 116 220 164 116 220 164 116 220 164 116 220 164 116 220 164 116 220 164 116 220 164 116 220 164 116 220 164 116 220 164 116 220 164 116 220 164 116 220 164 116 220 164 116 220 164 116 220 164 116 220 164 116 220 164 116 220 164 116 220 164 116 220 164 116 220 164 116 220 164 116 220 164 116 220 164 116 220 164 116 220 164 116 220 164 116 220 164 116 220 164 116 220 164 116 220 164 116 220 164 116 220 164 116 220 164 116 220 164 116 220 164 116 220 164 116 220 164 116 220 164 116
233 170 114 233 170 114 233 170 114 233 170 114 233 170 114 233 170 114 233 170 114 233 170 114 233 170 114 233 170 114 233 170 114 233 170 114 233 170 114 233 170 114 233 170 114 233 170 114 233 170 114 233 170 114 233 170 114 233 170 114 233 170 114 233 170 114 233 170 114 233 170 114 233 170 114 233 170 114 233 170 114 233 170 114 233 170 114 233 170 114 233 170 114 233 170 114 233 170 114 233 170 114 233 170 114 233 170 114 233 170 114 233 170 114 233 170 114 233 170 114 233 170 114 233 170 114 233 170 114 233 170 114 233 170 114 233 170 114 233 170 114 233 170 114
246 176 112 246 176 112 246 176 112 246 176 112 246 176 112 246 176 112 246 176 112 246 176 112 246 176 112 246 176 112 246 176 112 246 176 112 246 176 112 246 176 112 246 176 112 246 176 112 246 176 112 246 176 112 246 176 112 246 176 112 246 176 112 246 176 112 246 176 112 246 176 112 246 176 112 246 176 112 246 176 112 246 176 112 246 176 112 246 176 112 246 176 112 246 176 112 246 176 112 246 176 112 246 176 112 246 176 112 246 176 112 246 176 112 246 176 112 246 176 112 246 176 112 246 176 112 246 176 112 246 176 112 246 176 112 246 176 112 246 176 112 246 176 112
39 115 148 45 118 150 51 121 152 54 122 153 53 122 152 48 119 151 42 116 149 37 114 147 36 113 147 39 115 148 45 118 150 51 121 152 54 122 153 53 122 152 47 119 150 42 116 149 37 114 147 36 113 147 40 115 148 45 118 150 51 121 152 54 122 153 53 122 152 47 119 150 41 116 148 36 113 147 36 113 147 40 115 148 45 118 150 52 121 152 54 122 153 53 122 152 47 119 150 41 116 148 36 113 147 36 113 147 40 115 148 46 118 150 52 121 152 54 122 153 53 122 152 47 119 150 41 116 148 36 113 147 36 113 147 40 115 148 46 118 150 52 121 152
45 118 150 51 121 152 54 122 153 53 122 152 48 119 151 42 116 149 37 114 147 36 113 147 39 115 148 45 118 150 51 121 152 54 122 153 53 122 152 47 119 150 42 116 149 37 114 147 36 113 147 40 115 148 45 118 150 51 121 152 54 122 153 53 122 152 47 119 150 41 116 148 36 113 147 36 113 147 40 115 148 45 118 150 52 121 152 54 122 153 53 122 152 47 119 150 41 116 148 36 113 147 36 113 147 40 115 148 46 118 150 52 121 152 54 122 153 53 122 152 47 119 150 41 116 148 36 113 147 36 113 147 40 115 148 46 118 150 52 121 152 54 122 153
51 121 152 54 122 153 53 122 152 48 119 151 42 116 149 37 114 147 36 113 147 39 115 148 45 118 150 51 121 152 54 122 153 53 122 152 47 119 150 42 116 149 37 114 147 36 113 147 40 115 148 45 118 150 51 121 152 54 122 153 53 122 152 47 119 150 41 116 148 36 113 147 36 113 147 40 115 148 45 118 150 52 121 152 54 122 153 53 122 152 47 119 150 41 116 148 36 113 147 36 113 147 40 115 148 46 118 150 52 121 152 54 122 153 53 122 152 47 119 150 41 116 148 36 113 147 36 113 147 40 115 148 46 118 150 52 121 152 54 122 153 52 121 152
54 122 153 53 122 152 48 119 151 42 116 149 37 114 147 36 113 147 39 115 148 45 118 150 51 121 152 54 122 153 53 122 152 47 119 150 42 116 149 37 114 147 36 113 147 40 115 148 45 118 150 51 121 152 54 122 153 53 122 152 47 119 150 41 116 148 36 113 147 36 113 147 40 115 148 45 118 150 52 121 152 54 122 153 53 122 152 47 119 150 41 116 148 36 113 147 36 113 147 40 115 148 46 118 150 52 121 152 54 122 153 53 122 152 47 119 150 41 116 148 36 113 147 36 113 147 40 115 148 46 118 150 52 121 152 54 122 153 52 121 152 47 119 150
45 91 66 45 91 66 45 91 66 71 112 92 71 112 92 71 112 92 71 112 92 71 112 92 71 112 92 71 112 92 71 112 92 71 112 92 45 91 66 45 91 66 45 91 66 45 91 66 45 96 66 45 96 66 45 96 66 45 96 66 45 96 66 45 96 66 45 96 66 45 96 66 45 96 66 45 96 66 45 91 66 45 91 66 45 91 66 45 91 66 71 112 92 71 112 92 71 112 92 71 112 92 71 112 92 71 112 92 71 112 92 71 112 92 71 112 92 45 91 66 45 91 66 45 91 66 45 91 66 45 91 66 45 96 66 45 96 66 45 96 66 45 96 66
45 96 66 45 96 66 45 96 66 45 91 66 45 91 66 45 91 66 45 91 66 45 91 66 45 91 66 45 91 66 45 91 66 45 91 66 45 96 66 45 96 66 45 96 66 45 96 66 45 101 66 45 101 66 45 101 66 45 101 66 45 101 66 45 101 66 45 101 66 45 101 66 45 101 66 45 101 66 45 96 66 45 96 66 45 96 66 45 96 66 45 91 66 45 91 66 45 91 66 45 91 66 45 91 66 45 91 66 45 91 66 45 91 66 45 91 66 45 96 66 45 96 66 45 96 66 45 96 66 45 96 66 45 101 66 45 101 66 45 101 66 45 101 66
45 101 66 45 101 66 45 101 66 45 96 66 45 96 66 45 96 66 45 96 66 45 96 66 45 96 66 45 96 66 45 96 66 45 96 66 45 101 66 45 101 66 45 101 66 45 101 66 45 106 66 45 106 66 45 106 66 45 106 66 45 106 66 45 106 66 45 106 66 45 106 66 45 106 66 45 106 66 45 101 66 45 101 66 45 101 66 45 101 66 45 96 66 45 96 66 45 96 66 45 96 66 45 96 66 45 96 66 45 96 66 45 96 66 45 96 66 45 101 66 45 101 66 45 101 66 45 101 66 45 101 66 45 106 66 45 106 66 45 106 66 45 106 66
45 106 66 45 106 66 45 106 66 45 101 66 45 101 66 45 101 66 45 101 66 45 101 66 45 101 66 45 101 66 45 101 66 45 101 66 45 106 66 45 106 66 45 106 66 45 106 66 45 111 66 45 111 66 45 111 66 45 111 66 45 111 66 45 111 66 45 111 66 45 111 66 45 111 66 45 111 66 45 106 66 45 106 66 45 106 66 45 106 66 45 101 66 45 101 66 45 101 66 45 101 66 45 101 66 45 101 66 45 101 66 45 101 66 45 101 66 45 106 66 45 106 66 45 106 66 45 106 66 45 106 66 45 111 66 45 111 66 45 111 66 45 111 66
45 111 66 45 111 66 45 111 66 45 106 66 45 106 66 45 106 66 45 106 66 45 106 66 45 106 66 45 106 66 45 106 66 45 106 66 45 111 66 45 111 66 45 111 66 45 111 66 45 116 66 45 116 66 45 116 66 45 116 66 45 116 66 45 116 66 45 116 66 45 116 66 45 116 66 45 116 66 45 111 66 45 111 66 45 111 66 45 111 66 45 106 66 45 106 66 45 106 66 45 106 66 45 106 66 45 106 66 45 106 66 45 106 66 45 106 66 45 111 66 45 111 66 45 111 66 45 111 66 45 111 66 45 116 66 45 116 66 45 116 66 45 116 66
45 116 66 45 116 66 45 116 66 45 111 66 45 111 66 45 111 66 45 111 66 45 111 66 45 111 66 45 111 66 45 111 66 45 111 66 45 116 66 45 116 66 45 116 66 45 116 66 45 121 66 45 121 66 45 121 66 45 121 66 45 121 66 45 121 66 45 121 66 45 121 66 45 121 66 45 121 66 45 116 66 45 116 66 45 116 66 45 116 66 45 111 66 45 111 66 45 111 66 45 111 66 45 111 66 45 111 66 45 111 66 45 111 66 45 111 66 45 116 66 45 116 66 45 116 66 45 116 66 45 116 66 45 121 66 45 121 66 45 121 66 45 121 66
